src/4-icons/attach.svg

<svg width="260" height="260" viewBox="0 0 260 260" fill="none" xmlns="http://www.w3.org/2000/svg">
<g opacity="0.9">
<path d="M45.8871 253C59.2009 253 72.7326 247.652 83.0927 237.245L91.6275 228.658L91.7743 228.803L98.1932 222.071L126.862 193.181L126.28 192.598L217.433 96.9778C224.618 89.4464 228.34 79.8044 228.34 70.3443C228.34 62.0851 225.422 53.7891 219.221 47.6036C213.275 41.6726 205.323 38.7987 197.445 38.7987C187.742 38.7987 177.93 42.9475 170.525 50.7333L60.9488 165.951C58.1726 168.87 58.2947 173.488 61.2213 176.257C64.1368 179.014 68.7341 178.893 71.4997 175.985L181.066 60.7761C185.808 55.7917 191.9 53.3542 197.408 53.3542C201.895 53.3897 205.87 54.882 208.898 57.9023C212.035 61.0305 213.713 65.3968 213.713 70.3102C213.713 75.9129 211.451 82.0983 206.818 86.9023L87.7961 211.812L72.7312 226.985C65.1439 234.626 55.2954 238.446 45.8857 238.446C37.5333 238.446 29.6539 235.5 23.745 229.604C17.7265 223.601 14.626 215.451 14.626 206.791C14.626 197.403 18.3107 187.579 25.6415 179.939L90.7142 112.335L161.186 39.5648C172.785 27.5577 187.813 21.5542 201.893 21.5542C213.603 21.5912 224.472 25.629 232.68 33.7801C241.142 42.2212 245.41 53.7194 245.447 66.1259C245.447 80.2066 239.793 95.2339 228.558 106.987L117.062 223.459C114.278 226.368 114.384 230.985 117.3 233.763C120.206 236.532 124.804 236.425 127.58 233.526L239.062 117.029C252.886 102.548 259.963 84.064 260 66.1259C260 50.4078 254.456 34.9072 242.966 23.4829C231.841 12.3855 216.958 6.96323 201.858 7.00019C183.657 7.00019 164.944 14.6766 150.646 29.4495L80.1746 102.22L85.4636 107.276L80.2117 102.22L15.1019 169.859C5.10807 180.264 0 193.655 0 206.79C0 218.906 4.37712 230.95 13.3864 239.937C22.2504 248.742 34.031 253.036 45.8857 252.999L45.8871 253Z" fill="black"/>
</g>
</svg>

<svg width="260" height="260" viewBox="0 0 260 260" fill="none" xmlns="http://www.w3.org/2000/svg"><path d="M45.887 253c13.314 0 26.846-5.348 37.206-15.755l8.534-8.587.147.145 6.42-6.732 28.668-28.89-.582-.583 91.153-95.62c7.185-7.532 10.907-17.174 10.907-26.634 0-8.259-2.918-16.555-9.119-22.74-5.946-5.931-13.898-8.805-21.776-8.805-9.703 0-19.515 4.148-26.92 11.934L60.949 165.951a7.28 7.28 0 1 0 10.55 10.034L181.067 60.776c4.742-4.984 10.834-7.422 16.342-7.422 4.487.036 8.462 1.528 11.49 4.548 3.137 3.129 4.815 7.495 4.815 12.408 0 5.603-2.262 11.788-6.895 16.592L87.796 211.812l-15.065 15.173c-7.587 7.641-17.436 11.461-26.845 11.461-8.353 0-16.232-2.946-22.141-8.842-6.018-6.003-9.119-14.153-9.119-22.813 0-9.388 3.685-19.212 11.016-26.852l65.072-67.604 70.472-72.77c11.599-12.007 26.627-18.01 40.707-18.01 11.71.036 22.579 4.074 30.787 12.225 8.462 8.441 12.73 19.94 12.767 32.346 0 14.08-5.654 29.108-16.889 40.861L117.062 223.459a7.28 7.28 0 0 0 10.518 10.067l111.482-116.497c13.824-14.481 20.901-32.965 20.938-50.903 0-15.718-5.544-31.219-17.034-42.643C231.841 12.385 216.958 6.963 201.858 7c-18.201 0-36.914 7.677-51.212 22.45l-70.471 72.77 5.289 5.056-5.252-5.056-65.11 67.639C5.108 180.264 0 193.655 0 206.79c0 12.116 4.377 24.16 13.386 33.147 8.864 8.805 20.645 13.099 32.5 13.062l.001.001Z" fill="#000" opacity=".9"/></svg>
